X:67
T: Kyckling Polka
M: 2/4
K: C
L: 1/8
   GG GG | GG e2 | GG d2 | GG c2 |
   GG GG | GG e2 | GG dG | c4 :|
L: 1/16
|: cBAB cBAc | B2ee e2e2 | cBAB cBAc |1 B2E2 E4   :|2 e8||
|: edcd edce | dcBc dcBd | cBAB cAFA | GABc dGBd   |
   edcd edce | dcBc dcBd | cBAB cAFA | A2G2 GGBd  :|


